client/public/assets/icons/standard/document.svg

<?xml version="1.0"?><svg xmlns="http://www.w3.org/2000/svg" width="100" height="100" viewBox="0 0 100 100"><path fill="#fff" d="m73 42h-14c-3.3 0-6-2.7-6-6v-14c0-1.1-0.9-2-2-2h-20c-3.3 0-6 2.7-6 6v48c0 3.3 2.7 6 6 6h38c3.3 0 6-2.7 6-6v-30c0-1.1-0.9-2-2-2z m1.6-8.4l-13.2-13.2c-0.3-0.3-0.6-0.4-1-0.4-0.8 0-1.4 0.6-1.4 1.4v10.6c0 2.2 1.8 4 4 4h10.6c0.8 0 1.4-0.6 1.4-1.4 0-0.4-0.1-0.7-0.4-1z"></path></svg>

<?xml version="1.0" encoding="utf-8"?>
<!-- Generator: Adobe Illustrator 17.1.0, SVG Export Plug-In . SVG Version: 6.00 Build 0)  -->
<!DOCTYPE svg PUBLIC "-//W3C//DTD SVG 1.1//EN" "http://www.w3.org/Graphics/SVG/1.1/DTD/svg11.dtd">
<svg version="1.1" id="Layer_1" xmlns="http://www.w3.org/2000/svg" xmlns:xlink="http://www.w3.org/1999/xlink" x="0px" y="0px" width="100" height="100"
	 viewBox="0 0 100 100" style="enable-background:new 0 0 100 100;" xml:space="preserve">

<g>
	<g>
		<path fill="#FFFFFF" d="M73,42H59c-3.3,0-6-2.7-6-6V22c0-1.1-0.9-2-2-2H31c-3.3,0-6,2.7-6,6v48c0,3.3,2.7,6,6,6h38c3.3,0,6-2.7,6-6
			V44C75,42.9,74.1,42,73,42z"/>
	</g>
	<g>
		<path fill="#FFFFFF" d="M74.6,33.6L61.4,20.4c-0.3-0.3-0.6-0.4-1-0.4h0c-0.8,0-1.4,0.6-1.4,1.4V32c0,2.2,1.8,4,4,4h10.6
			c0.8,0,1.4-0.6,1.4-1.4v0C75,34.2,74.9,33.9,74.6,33.6z"/>
	</g>
</g>
</svg>
